X:127
T:Old Adam The Poacher
Z:Jack Campin, http://www.campin.me.uk/
F:Jack Campin's Nine-Note Tunebook
% last edit 03-02-2013
S:http://www.sbgsongs.org/page14.htm
H:Devonshire, 1890s
M:4/4
L:1/8
Q:1/2=60
N:original key; low A is the original
N:hornpipe rhythm is an optional Irish idea
K:DMin
D>FA>c A2 F>E|D>FE>F D>FE>F|D>FA>c A2 F>E|D>FE>F [1 D2 [A,2A2]:|\
                                                 [2 D4        ||
K:D
G>Bd>B G>Bd>B|G>AB>c d2 c>B|A2 A>B A2 A>F|D>FE>F    D2 [A,2A2]|]

